bernoullicharts/1_1_x_even_parity__mean.svg

<?xml version="1.0" encoding="utf-8" standalone="no"?>
<!DOCTYPE svg PUBLIC "-//W3C//DTD SVG 1.1//EN"
  "http://www.w3.org/Graphics/SVG/1.1/DTD/svg11.dtd">
<!-- Created with matplotlib (https://matplotlib.org/) -->
<svg height="345.6pt" version="1.1" viewBox="0 0 460.8 345.6" width="460.8pt" xmlns="http://www.w3.org/2000/svg" xmlns:xlink="http://www.w3.org/1999/xlink">
 <defs>
  <style type="text/css">
*{stroke-linecap:butt;stroke-linejoin:round;}
  </style>
 </defs>
 <g id="figure_1">
  <g id="patch_1">
   <path d="M 0 345.6 
L 460.8 345.6 
L 460.8 0 
L 0 0 
z
" style="fill:#ffffff;"/>
  </g>
  <g id="axes_1">
   <g id="patch_2">
    <path d="M 57.6 307.584 
L 414.72 307.584 
L 414.72 41.472 
L 57.6 41.472 
z
" style="fill:#ffffff;"/>
   </g>
   <g id="matplotlib.axis_1">
    <g id="xtick_1">
     <g id="line2d_1">
      <defs>
       <path d="M 0 0 
L 0 3.5 
" id="mcd83b49c5c" style="stroke:#000000;stroke-width:0.8;"/>
      </defs>
      <g>
       <use style="stroke:#000000;stroke-width:0.8;" x="73.800255" xlink:href="#mcd83b49c5c" y="307.584"/>
      </g>
     </g>
     <g id="text_1">
      <text style="font-family:DejaVu Sans;font-size:10px;font-style:normal;font-weight:normal;text-anchor:middle;" transform="rotate(-0, 73.800255, 322.182437)" x="73.800255" y="322.182437">0.0</text>
     </g>
    </g>
    <g id="xtick_2">
     <g id="line2d_2">
      <g>
       <use style="stroke:#000000;stroke-width:0.8;" x="138.744153" xlink:href="#mcd83b49c5c" y="307.584"/>
      </g>
     </g>
     <g id="text_2">
      <text style="font-family:DejaVu Sans;font-size:10px;font-style:normal;font-weight:normal;text-anchor:middle;" transform="rotate(-0, 138.744153, 322.182437)" x="138.744153" y="322.182437">0.2</text>
     </g>
    </g>
    <g id="xtick_3">
     <g id="line2d_3">
      <g>
       <use style="stroke:#000000;stroke-width:0.8;" x="203.688051" xlink:href="#mcd83b49c5c" y="307.584"/>
      </g>
     </g>
     <g id="text_3">
      <text style="font-family:DejaVu Sans;font-size:10px;font-style:normal;font-weight:normal;text-anchor:middle;" transform="rotate(-0, 203.688051, 322.182437)" x="203.688051" y="322.182437">0.4</text>
     </g>
    </g>
    <g id="xtick_4">
     <g id="line2d_4">
      <g>
       <use style="stroke:#000000;stroke-width:0.8;" x="268.631949" xlink:href="#mcd83b49c5c" y="307.584"/>
      </g>
     </g>
     <g id="text_4">
      <text style="font-family:DejaVu Sans;font-size:10px;font-style:normal;font-weight:normal;text-anchor:middle;" transform="rotate(-0, 268.631949, 322.182437)" x="268.631949" y="322.182437">0.6</text>
     </g>
    </g>
    <g id="xtick_5">
     <g id="line2d_5">
      <g>
       <use style="stroke:#000000;stroke-width:0.8;" x="333.575847" xlink:href="#mcd83b49c5c" y="307.584"/>
      </g>
     </g>
     <g id="text_5">
      <text style="font-family:DejaVu Sans;font-size:10px;font-style:normal;font-weight:normal;text-anchor:middle;" transform="rotate(-0, 333.575847, 322.182437)" x="333.575847" y="322.182437">0.8</text>
     </g>
    </g>
    <g id="xtick_6">
     <g id="line2d_6">
      <g>
       <use style="stroke:#000000;stroke-width:0.8;" x="398.519745" xlink:href="#mcd83b49c5c" y="307.584"/>
      </g>
     </g>
     <g id="text_6">
      <text style="font-family:DejaVu Sans;font-size:10px;font-style:normal;font-weight:normal;text-anchor:middle;" transform="rotate(-0, 398.519745, 322.182437)" x="398.519745" y="322.182437">1.0</text>
     </g>
    </g>
    <g id="text_7">
     <text style="font-family:DejaVu Sans;font-size:10px;font-style:normal;font-weight:normal;text-anchor:middle;" transform="rotate(-0, 236.16, 335.860562)" x="236.16" y="335.860562">Input Coin's Heads Probability (λ)</text>
    </g>
   </g>
   <g id="matplotlib.axis_2">
    <g id="ytick_1">
     <g id="line2d_7">
      <defs>
       <path d="M 0 0 
L -3.5 0 
" id="m88dde6324a" style="stroke:#000000;stroke-width:0.8;"/>
      </defs>
      <g>
       <use style="stroke:#000000;stroke-width:0.8;" x="57.6" xlink:href="#m88dde6324a" y="282.658909"/>
      </g>
     </g>
     <g id="text_8">
      <text style="font-family:DejaVu Sans;font-size:10px;font-style:normal;font-weight:normal;text-anchor:end;" transform="rotate(-0, 50.6, 286.458128)" x="50.6" y="286.458128">0.5</text>
     </g>
    </g>
    <g id="ytick_2">
     <g id="line2d_8">
      <g>
       <use style="stroke:#000000;stroke-width:0.8;" x="57.6" xlink:href="#m88dde6324a" y="236.840727"/>
      </g>
     </g>
     <g id="text_9">
      <text style="font-family:DejaVu Sans;font-size:10px;font-style:normal;font-weight:normal;text-anchor:end;" transform="rotate(-0, 50.6, 240.639946)" x="50.6" y="240.639946">0.6</text>
     </g>
    </g>
    <g id="ytick_3">
     <g id="line2d_9">
      <g>
       <use style="stroke:#000000;stroke-width:0.8;" x="57.6" xlink:href="#m88dde6324a" y="191.022545"/>
      </g>
     </g>
     <g id="text_10">
      <text style="font-family:DejaVu Sans;font-size:10px;font-style:normal;font-weight:normal;text-anchor:end;" transform="rotate(-0, 50.6, 194.821764)" x="50.6" y="194.821764">0.7</text>
     </g>
    </g>
    <g id="ytick_4">
     <g id="line2d_10">
      <g>
       <use style="stroke:#000000;stroke-width:0.8;" x="57.6" xlink:href="#m88dde6324a" y="145.204364"/>
      </g>
     </g>
     <g id="text_11">
      <text style="font-family:DejaVu Sans;font-size:10px;font-style:normal;font-weight:normal;text-anchor:end;" transform="rotate(-0, 50.6, 149.003582)" x="50.6" y="149.003582">0.8</text>
     </g>
    </g>
    <g id="ytick_5">
     <g id="line2d_11">
      <g>
       <use style="stroke:#000000;stroke-width:0.8;" x="57.6" xlink:href="#m88dde6324a" y="99.386182"/>
      </g>
     </g>
     <g id="text_12">
      <text style="font-family:DejaVu Sans;font-size:10px;font-style:normal;font-weight:normal;text-anchor:end;" transform="rotate(-0, 50.6, 103.185401)" x="50.6" y="103.185401">0.9</text>
     </g>
    </g>
    <g id="ytick_6">
     <g id="line2d_12">
      <g>
       <use style="stroke:#000000;stroke-width:0.8;" x="57.6" xlink:href="#m88dde6324a" y="53.568"/>
      </g>
     </g>
     <g id="text_13">
      <text style="font-family:DejaVu Sans;font-size:10px;font-style:normal;font-weight:normal;text-anchor:end;" transform="rotate(-0, 50.6, 57.367219)" x="50.6" y="57.367219">1.0</text>
     </g>
    </g>
    <g id="text_14">
     <text style="font-family:DejaVu Sans;font-size:10px;font-style:normal;font-weight:normal;text-anchor:middle;" transform="rotate(-90, 28.617187, 174.528)" x="28.617187" y="174.528">Simulated Mean / Function Value</text>
    </g>
   </g>
   <g id="line2d_13">
    <path clip-path="url(#pada054f700)" d="M 73.832727 53.613814 
L 77.112066 58.193813 
L 80.391405 62.683146 
L 83.670744 67.084479 
L 86.950083 71.400373 
L 90.229421 75.633294 
L 93.50876 79.78561 
L 96.788099 83.859602 
L 100.067438 87.857466 
L 103.346777 91.781316 
L 106.626116 95.633188 
L 109.905455 99.415045 
L 113.184793 103.128779 
L 116.464132 106.776214 
L 119.743471 110.359109 
L 123.02281 113.879163 
L 126.302149 117.338014 
L 129.581488 120.737246 
L 132.860826 124.078385 
L 136.140165 127.362909 
L 139.419504 130.592245 
L 142.698843 133.767772 
L 145.978182 136.890824 
L 149.257521 139.962691 
L 152.53686 142.984621 
L 155.816198 145.957821 
L 159.095537 148.883462 
L 162.374876 151.762675 
L 165.654215 154.596556 
L 168.933554 157.386169 
L 172.212893 160.132541 
L 175.492231 162.836672 
L 178.77157 165.499527 
L 182.050909 168.122045 
L 185.330248 170.705136 
L 188.609587 173.249681 
L 191.888926 175.756538 
L 195.168264 178.226537 
L 198.447603 180.660486 
L 201.726942 183.059168 
L 205.006281 185.423344 
L 208.28562 187.753752 
L 211.564959 190.051113 
L 214.844298 192.316123 
L 218.123636 194.549461 
L 221.402975 196.751787 
L 224.682314 198.923742 
L 227.961653 201.065951 
L 231.240992 203.179019 
L 234.520331 205.263539 
L 237.799669 207.320084 
L 241.079008 209.349213 
L 244.358347 211.351472 
L 247.637686 213.327391 
L 250.917025 215.277486 
L 254.196364 217.20226 
L 257.475702 219.102202 
L 260.755041 220.977792 
L 264.03438 222.829492 
L 267.313719 224.657758 
L 270.593058 226.463031 
L 273.872397 228.245743 
L 277.151736 230.006313 
L 280.431074 231.745151 
L 283.710413 233.462658 
L 286.989752 235.159224 
L 290.269091 236.835229 
L 293.54843 238.491045 
L 296.827769 240.127034 
L 300.107107 241.74355 
L 303.386446 243.34094 
L 306.665785 244.91954 
L 309.945124 246.479679 
L 313.224463 248.021681 
L 316.503802 249.54586 
L 319.78314 251.052522 
L 323.062479 252.541968 
L 326.341818 254.014491 
L 329.621157 255.470379 
L 332.900496 256.909911 
L 336.179835 258.333361 
L 339.459174 259.740998 
L 342.738512 261.133083 
L 346.017851 262.509874 
L 349.29719 263.871619 
L 352.576529 265.218566 
L 355.855868 266.550954 
L 359.135207 267.869017 
L 362.414545 269.172985 
L 365.693884 270.463083 
L 368.973223 271.739532 
L 372.252562 273.002547 
L 375.531901 274.252338 
L 378.81124 275.489113 
L 382.090579 276.713073 
L 385.369917 277.924417 
L 388.649256 279.123339 
L 391.928595 280.310029 
L 395.207934 281.484673 
L 398.487273 282.647454 
" style="fill:none;stroke:#1f77b4;stroke-linecap:square;stroke-width:1.5;"/>
   </g>
   <g id="line2d_14">
    <path clip-path="url(#pada054f700)" d="M 73.832727 53.568 
L 77.112066 60.898909 
L 80.391405 63.648 
L 83.670744 71.895273 
L 86.950083 67.313455 
L 90.229421 73.728 
L 93.50876 76.477091 
L 96.788099 85.640727 
L 100.067438 85.640727 
L 103.346777 94.804364 
L 106.626116 106.717091 
L 109.905455 98.469818 
L 113.184793 101.218909 
L 116.464132 108.549818 
L 119.743471 109.466182 
L 123.02281 108.549818 
L 126.302149 116.797091 
L 129.581488 136.957091 
L 132.860826 129.626182 
L 136.140165 123.211636 
L 139.419504 132.375273 
L 142.698843 134.208 
L 145.978182 137.873455 
L 149.257521 139.706182 
L 152.53686 144.288 
L 155.816198 159.866182 
L 159.095537 146.120727 
L 162.374876 148.869818 
L 165.654215 152.535273 
L 168.933554 153.451636 
L 172.212893 163.531636 
L 175.492231 157.117091 
L 178.77157 158.949818 
L 182.050909 167.197091 
L 185.330248 156.200727 
L 188.609587 164.448 
L 191.888926 183.691636 
L 195.168264 197.437091 
L 198.447603 174.528 
L 201.726942 176.360727 
L 205.006281 197.437091 
L 208.28562 194.688 
L 211.564959 182.775273 
L 214.844298 216.680727 
L 218.123636 199.269818 
L 221.402975 188.273455 
L 224.682314 215.764364 
L 227.961653 182.775273 
L 231.240992 203.851636 
L 234.520331 202.018909 
L 237.799669 212.098909 
L 241.079008 218.513455 
L 244.358347 216.680727 
L 247.637686 219.429818 
L 250.917025 225.844364 
L 254.196364 218.513455 
L 257.475702 235.924364 
L 260.755041 217.597091 
L 264.03438 218.513455 
L 267.313719 232.258909 
L 270.593058 219.429818 
L 273.872397 210.266182 
L 277.151736 234.091636 
L 280.431074 245.088 
L 283.710413 240.506182 
L 286.989752 224.928 
L 290.269091 234.091636 
L 293.54843 250.586182 
L 296.827769 222.178909 
L 300.107107 240.506182 
L 303.386446 239.589818 
L 306.665785 246.004364 
L 309.945124 237.757091 
L 313.224463 244.171636 
L 316.503802 252.418909 
L 319.78314 260.666182 
L 323.062479 241.422545 
L 326.341818 264.331636 
L 329.621157 250.586182 
L 332.900496 265.248 
L 336.179835 253.335273 
L 339.459174 260.666182 
L 342.738512 257.000727 
L 346.017851 263.415273 
L 349.29719 269.829818 
L 352.576529 259.749818 
L 355.855868 259.749818 
L 359.135207 268.913455 
L 362.414545 260.666182 
L 365.693884 248.753455 
L 368.973223 272.578909 
L 372.252562 271.662545 
L 375.531901 267.997091 
L 378.81124 278.077091 
L 382.090579 283.575273 
L 385.369917 295.488 
L 388.649256 270.746182 
L 391.928595 283.575273 
L 395.207934 270.746182 
" style="fill:none;stroke:#ff7f0e;stroke-linecap:square;stroke-width:1.5;"/>
   </g>
   <g id="patch_3">
    <path d="M 57.6 307.584 
L 57.6 41.472 
" style="fill:none;stroke:#000000;stroke-linecap:square;stroke-linejoin:miter;stroke-width:0.8;"/>
   </g>
   <g id="patch_4">
    <path d="M 414.72 307.584 
L 414.72 41.472 
" style="fill:none;stroke:#000000;stroke-linecap:square;stroke-linejoin:miter;stroke-width:0.8;"/>
   </g>
   <g id="patch_5">
    <path d="M 57.6 307.584 
L 414.72 307.584 
" style="fill:none;stroke:#000000;stroke-linecap:square;stroke-linejoin:miter;stroke-width:0.8;"/>
   </g>
   <g id="patch_6">
    <path d="M 57.6 41.472 
L 414.72 41.472 
" style="fill:none;stroke:#000000;stroke-linecap:square;stroke-linejoin:miter;stroke-width:0.8;"/>
   </g>
   <g id="text_15">
    <text style="font-family:DejaVu Sans;font-size:12px;font-style:normal;font-weight:normal;text-anchor:middle;" transform="rotate(-0, 236.16, 35.472)" x="236.16" y="35.472">Expected Value in 1/(1+x) (Even Parity) Algorithm</text>
   </g>
   <g id="legend_1">
    <g id="patch_7">
     <path d="M 173.248125 78.82825 
L 407.72 78.82825 
Q 409.72 78.82825 409.72 76.82825 
L 409.72 48.472 
Q 409.72 46.472 407.72 46.472 
L 173.248125 46.472 
Q 171.248125 46.472 171.248125 48.472 
L 171.248125 76.82825 
Q 171.248125 78.82825 173.248125 78.82825 
z
" style="fill:#ffffff;opacity:0.8;stroke:#cccccc;stroke-linejoin:miter;"/>
    </g>
    <g id="line2d_15">
     <path d="M 175.248125 54.570437 
L 195.248125 54.570437 
" style="fill:none;stroke:#1f77b4;stroke-linecap:square;stroke-width:1.5;"/>
    </g>
    <g id="line2d_16"/>
    <g id="text_16">
     <text style="font-family:DejaVu Sans;font-size:10px;font-style:normal;font-weight:normal;text-anchor:start;" transform="rotate(-0, 203.248125, 58.070437)" x="203.248125" y="58.070437">1/(1+x)</text>
    </g>
    <g id="line2d_17">
     <path d="M 175.248125 69.248562 
L 195.248125 69.248562 
" style="fill:none;stroke:#ff7f0e;stroke-linecap:square;stroke-width:1.5;"/>
    </g>
    <g id="line2d_18"/>
    <g id="text_17">
     <text style="font-family:DejaVu Sans;font-size:10px;font-style:normal;font-weight:normal;text-anchor:start;" transform="rotate(-0, 203.248125, 72.748562)" x="203.248125" y="72.748562">Simulated Mean of 1/(1+x) (Even Parity)</text>
    </g>
   </g>
  </g>
 </g>
 <defs>
  <clipPath id="pada054f700">
   <rect height="266.112" width="357.12" x="57.6" y="41.472"/>
  </clipPath>
 </defs>
</svg>

<svg height="460.8" viewBox="0 0 460.8 345.6" width="614.4" xmlns="http://www.w3.org/2000/svg" xmlns:xlink="http://www.w3.org/1999/xlink"><defs><style>*{stroke-linecap:butt;stroke-linejoin:round}</style></defs><g id="figure_1"><path d="M0 345.6h460.8V0H0z" fill="#fff" id="patch_1"/><g id="axes_1"><path d="M57.6 307.584h357.12V41.472H57.6z" fill="#fff" id="patch_2"/><g id="matplotlib.axis_1"><g id="xtick_1"><g id="line2d_1"><defs><path d="M0 0v3.5" id="mcd83b49c5c" stroke="#000" stroke-width=".8"/></defs><use x="73.8" xlink:href="#mcd83b49c5c" y="307.584" stroke="#000" stroke-width=".8"/></g><text x="73.8" y="322.182" font-family="DejaVu Sans" font-size="10" font-weight="400" text-anchor="middle" id="text_1">0.0</text></g><g id="xtick_2"><use x="138.744" xlink:href="#mcd83b49c5c" y="307.584" stroke="#000" stroke-width=".8" id="line2d_2"/><text x="138.744" y="322.182" font-family="DejaVu Sans" font-size="10" font-weight="400" text-anchor="middle" id="text_2">0.2</text></g><g id="xtick_3"><use x="203.688" xlink:href="#mcd83b49c5c" y="307.584" stroke="#000" stroke-width=".8" id="line2d_3"/><text x="203.688" y="322.182" font-family="DejaVu Sans" font-size="10" font-weight="400" text-anchor="middle" id="text_3">0.4</text></g><g id="xtick_4"><use x="268.632" xlink:href="#mcd83b49c5c" y="307.584" stroke="#000" stroke-width=".8" id="line2d_4"/><text x="268.632" y="322.182" font-family="DejaVu Sans" font-size="10" font-weight="400" text-anchor="middle" id="text_4">0.6</text></g><g id="xtick_5"><use x="333.576" xlink:href="#mcd83b49c5c" y="307.584" stroke="#000" stroke-width=".8" id="line2d_5"/><text x="333.576" y="322.182" font-family="DejaVu Sans" font-size="10" font-weight="400" text-anchor="middle" id="text_5">0.8</text></g><g id="xtick_6"><use x="398.52" xlink:href="#mcd83b49c5c" y="307.584" stroke="#000" stroke-width=".8" id="line2d_6"/><text x="398.52" y="322.182" font-family="DejaVu Sans" font-size="10" font-weight="400" text-anchor="middle" id="text_6">1.0</text></g><text x="236.16" y="335.861" font-family="DejaVu Sans" font-size="10" font-weight="400" text-anchor="middle" id="text_7">Input Coin&apos;s Heads Probability (λ)</text></g><g id="matplotlib.axis_2"><g id="ytick_1"><g id="line2d_7"><defs><path d="M0 0h-3.5" id="m88dde6324a" stroke="#000" stroke-width=".8"/></defs><use x="57.6" xlink:href="#m88dde6324a" y="282.659" stroke="#000" stroke-width=".8"/></g><text x="50.6" y="286.458" font-family="DejaVu Sans" font-size="10" font-weight="400" text-anchor="end" id="text_8">0.5</text></g><g id="ytick_2"><use x="57.6" xlink:href="#m88dde6324a" y="236.841" stroke="#000" stroke-width=".8" id="line2d_8"/><text x="50.6" y="240.64" font-family="DejaVu Sans" font-size="10" font-weight="400" text-anchor="end" id="text_9">0.6</text></g><g id="ytick_3"><use x="57.6" xlink:href="#m88dde6324a" y="191.023" stroke="#000" stroke-width=".8" id="line2d_9"/><text x="50.6" y="194.822" font-family="DejaVu Sans" font-size="10" font-weight="400" text-anchor="end" id="text_10">0.7</text></g><g id="ytick_4"><use x="57.6" xlink:href="#m88dde6324a" y="145.204" stroke="#000" stroke-width=".8" id="line2d_10"/><text x="50.6" y="149.004" font-family="DejaVu Sans" font-size="10" font-weight="400" text-anchor="end" id="text_11">0.8</text></g><g id="ytick_5"><use x="57.6" xlink:href="#m88dde6324a" y="99.386" stroke="#000" stroke-width=".8" id="line2d_11"/><text x="50.6" y="103.185" font-family="DejaVu Sans" font-size="10" font-weight="400" text-anchor="end" id="text_12">0.9</text></g><g id="ytick_6"><use x="57.6" xlink:href="#m88dde6324a" y="53.568" stroke="#000" stroke-width=".8" id="line2d_12"/><text x="50.6" y="57.367" font-family="DejaVu Sans" font-size="10" font-weight="400" text-anchor="end" id="text_13">1.0</text></g><text transform="rotate(-90 28.617 174.528)" x="28.617" y="174.528" font-family="DejaVu Sans" font-size="10" font-weight="400" text-anchor="middle" id="text_14">Simulated Mean / Function Value</text></g><path clip-path="url(#pada054f700)" d="M73.833 53.614l3.28 4.58 3.278 4.49 3.28 4.4 3.28 4.316 3.278 4.233 3.28 4.153 3.28 4.074 3.278 3.997 3.28 3.924 3.28 3.852 3.278 3.782 3.28 3.714 3.28 3.647 3.278 3.583 3.28 3.52 3.28 3.459 3.278 3.4 3.28 3.34 3.28 3.285 3.279 3.23 3.279 3.175 3.28 3.123 3.279 3.072 3.279 3.022 3.28 2.973 3.279 2.925 3.279 2.88 3.28 2.834 3.279 2.79 3.279 2.746 3.28 2.704 3.279 2.663 3.279 2.622 3.28 2.583 3.279 2.545 3.279 2.507 3.28 2.47 3.279 2.433 3.279 2.4 3.28 2.363 3.279 2.33 3.279 2.298 3.28 2.265 3.279 2.233 3.279 2.203 3.28 2.172 3.279 2.142 3.279 2.113 3.28 2.085 3.279 2.056 3.279 2.03 3.28 2.001 3.279 1.976 3.279 1.95 3.28 1.925 3.279 1.9 3.279 1.876 3.28 1.851 3.279 1.829 3.28 1.805 3.278 1.783 3.28 1.76 3.28 1.74 3.278 1.717 3.28 1.696 3.28 1.676 3.278 1.656 3.28 1.636 3.28 1.617 3.278 1.597 3.28 1.579 3.28 1.56 3.278 1.542 3.28 1.524 3.28 1.507 3.278 1.489 3.28 1.472 3.28 1.456 3.278 1.44 3.28 1.423 3.28 1.408 3.279 1.392 3.279 1.377 3.28 1.362 3.279 1.347 3.279 1.332 3.28 1.318 3.279 1.304 3.279 1.29 3.28 1.277 3.279 1.263 3.279 1.25 3.28 1.236 3.279 1.224 3.279 1.211 3.28 1.2 3.279 1.186 3.279 1.175 3.28 1.162" fill="none" stroke="#1f77b4" stroke-linecap="square" stroke-width="1.5" id="line2d_13"/><path clip-path="url(#pada054f700)" d="M73.833 53.568l3.28 7.33 3.278 2.75 3.28 8.247 3.28-4.582 3.278 6.415 3.28 2.75 3.28 9.163h3.278l3.28 9.163 3.28 11.913 3.278-8.247 3.28 2.749 3.28 7.33 3.278.917 3.28-.916 3.28 8.247 3.278 20.16 3.28-7.33 3.28-6.415 3.279 9.163 3.279 1.833 3.28 3.665 3.279 1.833 3.279 4.582 3.28 15.578 3.279-13.745 3.279 2.749 3.28 3.665 3.279.917 3.279 10.08 3.28-6.415 3.279 1.833 3.279 8.247 3.28-10.996 3.279 8.247 3.279 19.244 3.28 13.745 3.279-22.909 3.279 1.833 3.28 21.076 3.279-2.749 3.279-11.913 3.28 33.906 3.279-17.411 3.279-10.997 3.28 27.491 3.279-32.989 3.279 21.077 3.28-1.833 3.279 10.08 3.279 6.414 3.28-1.832 3.279 2.749 3.279 6.414 3.28-7.33 3.279 17.41 3.279-18.327 3.28.916 3.279 13.746 3.28-12.83 3.278-9.163 3.28 23.826 3.28 10.996 3.278-4.582 3.28-15.578 3.28 9.164 3.278 16.494 3.28-28.407 3.28 18.327 3.278-.916 3.28 6.414 3.28-8.247 3.278 6.415 3.28 8.247 3.28 8.247 3.278-19.243 3.28 22.909 3.28-13.746 3.278 14.662 3.28-11.913 3.28 7.331 3.279-3.665 3.279 6.414 3.28 6.415 3.279-10.08h3.279l3.28 9.163 3.279-8.247 3.279-11.913 3.28 23.826 3.279-.916 3.279-3.666 3.28 10.08 3.279 5.498 3.279 11.913 3.28-24.742 3.279 12.83 3.279-12.83" fill="none" stroke="#ff7f0e" stroke-linecap="square" stroke-width="1.5" id="line2d_14"/><path d="M57.6 307.584V41.472" fill="none" stroke="#000" stroke-linecap="square" stroke-width=".8" id="patch_3"/><path d="M414.72 307.584V41.472" fill="none" stroke="#000" stroke-linecap="square" stroke-width=".8" id="patch_4"/><path d="M57.6 307.584h357.12" fill="none" stroke="#000" stroke-linecap="square" stroke-width=".8" id="patch_5"/><path d="M57.6 41.472h357.12" fill="none" stroke="#000" stroke-linecap="square" stroke-width=".8" id="patch_6"/><text x="236.16" y="35.472" font-family="DejaVu Sans" font-size="12" font-weight="400" text-anchor="middle" id="text_15">Expected Value in 1/(1+x) (Even Parity) Algorithm</text><g id="legend_1"><path d="M173.248 78.828H407.72q2 0 2-2V48.472q0-2-2-2H173.248q-2 0-2 2v28.356q0 2 2 2z" fill="#fff" opacity=".8" stroke="#ccc" id="patch_7"/><path d="M175.248 54.57h20" fill="none" stroke="#1f77b4" stroke-linecap="square" stroke-width="1.5" id="line2d_15"/><text x="203.248" y="58.07" font-family="DejaVu Sans" font-size="10" font-weight="400" id="text_16">1/(1+x)</text><path d="M175.248 69.249h20" fill="none" stroke="#ff7f0e" stroke-linecap="square" stroke-width="1.5" id="line2d_17"/><text x="203.248" y="72.749" font-family="DejaVu Sans" font-size="10" font-weight="400" id="text_17">Simulated Mean of 1/(1+x) (Even Parity)</text></g></g></g><defs><clipPath id="pada054f700"><path d="M57.6 41.472h357.12v266.112H57.6z"/></clipPath></defs></svg>
